X:1
T:Birjina Maite
T:Birjina Maite
T:Villancico
%%score [ 1 2 3 4 ]
L:1/8
M:3/4
K:Ab
V:1 treble nm="Soprano" snm="S."
V:2 treble nm="Alto" snm="A."
V:3 treble-8 nm="Tenor" snm="T."
V:4 bass nm="Bass" snm="B."
V:1
 c3 =d =e2 | f4 c2 | d3 f d2 | c4 c2 | B3 d B2 | A4 G2 | A4 G2 | F6 | c3 =d =e2 | f4 c2 | d3 f d2 | %11
w: Bir- ji- na|Mai- te|lo- * tan|da- go|zu- * re|se- me|laz- ta-|na|se- has- ka-|txo- an|i- pi- ni|
w: Ho- tza- ren|ho- tzez|las- to tar-|te- an|gor- de du|gor- putz|gu- re-|na|a- mak mu-|su- ka|be- ro nahi|
w: Gi- zon bi-|ho- tzak|ho- tza dau-|ka- te|bi- to- tze-|ko hoz-|ta- su-|na|men- di ze-|la- iak|e- dur- te-|
 c4 c2 | B3 d B2 | A4 G2 | A4 G2 | F6 | c3 c c2 | c4 c2 | c3 c c2 | a4 g2 | f2 g2 f2 | f2 g2 f2 | %22
w: za- zu|gu- re bi-|ho- tzen|ku- ttu-|na.|On- gi bai|on- gi|i- ga- ro|di- tzan|ga- * ua|e- * ta|
w: lu- le|ar- ku- me|xu- ri|o- tza-|na.|Mai- ta- sun|ez- tiz|es- kein- tzen|di- zut|mai- * te-|単o- * a|
w: an lez|zu i- za-|ki mai-|ta- su-|na|ne- re- bi-|ho- tzak|hain zai- tu|mai- te|Bil- * do-|tso- * xu-|
 f2 g2 f2 | =e6 | c3 c c2 | c3 c c2 | c3 =d =e2 | f4 c2 | d2 c2 B2 | A4 G2 | A4 G2 | F6 |] %32
w: e- * gu-|nak|po- li- ki|po- li- ki|e- ra- gi-|o- zu|e- * gin|de- zan|lo o-|na|
w: nik de- ta-|na|bi- hotz be-|ro- * bat|txir- pil go|xo- az|e- * gin|te- ko|lo o-|na.|
w: ri- gu- re-|na|Gi- za ho-|tza- * ri|ja- ra- mon|ga- be|e- * gin|za- zu|lo o-|na.|
V:2
 c3 c B2 | A4 G2 | F3 F F2 | F4 E2 | D3 D D2 | C4 C2 | C4 C2 | F6 | c3 c B2 | A4 A2 | F3 F F2 | %11
w: Bir- ji- na|Mai- te|lo- * tan|da- go|zu- * re|se- me|laz- ta-|na|se- has- ka-|txo- an|i- pi- ni|
w: Ho- tza- ren|ho- tzez|las- to- tar-|te- an|gor- de du|gor- putz|gu- re-|na|a- mak- mu-|su- ka|be- ro nahi|
w: Gi- zon bi-|ho- tzak|ho- tza dau-|ka- te|bi- to- tze-|ko hoz-|ta- su-|na|men- di ze-|la- iak|e- dur- te-|
 F4 E2 | D3 D D2 | C4 C2 | C4 C2 | F6 | _F3 =F G2 | F2 G2 A2 | c3 c B2 | A2 F2 c2 | d4 c2 | %21
w: za- zu|gu- re bi-|ho- tzen|ku- ttu-|na|On- gi bai|o- on- gui|i- ga- ro|di- i- tzan|ga- ua|
w: lu- le|ar- ku- me|xu- ri|o- tza-|na.|Mai- ta- sun|e- ez- tiz|es- kein- tzen|di- i- zut|mai- te-|
w: an lez|zu i- za-|ki mai-|ta- su-|na|ne- re- bi-|ho- o- tzak|hain zai- tu|ma- ai- te|Bil- do-|
 _c4 G2 | A4 F2 | c6 | C3 C C2 | A3 A A2 | G3 G G2 | F4 F2 | B2 A2 D2 | C4 C2 | C4 C2 | F6 |] %32
w: e- ta|e- gu-|nak|po- li- ki|po- li- ki|e- ra- gi-|o- zu|e- * gin|de- zan|lo o-|na.|
w: 単o- a|nikde- ta-|na|bi- hotz be-|ro- * bat|txir- pil go|xo- az|e- * gin|te- ko|lo o-|na.|
w: txo- xu-|rigu- re-|na|Gi- za ho-|tza- * ri|ja- ra- mon|ga- be|e- * gin|za- zu|lo o-|na.|
V:3
 c3 =d =e2 | f4 c2 | d3 f d2 | c4 c2 | B3 d B2 | A4 G2 | A4 G2 | F6 | c3 =d =e2 | f4 c2 | d3 f d2 | %11
w: Bir- ji- na|Mai- te|lo- * tan|da- go|zu- * re|se- me|laz- ta-|na|se- has- ka-|txo- an|i- pi- ni|
w: Ho- tza- ren|ho- tzez|las- to tar-|te- an|gor- de du|gor- putz|gu- re-|na|a- mak mu-|su- ka|be- ro nahi|
w: Gi- zon bi-|ho- tzak|ho- tza dau-|ka- te|bi- to- tze-|ko hoz-|ta- su-|na|men- di ze-|la- iak|e- dur- te-|
 c4 c2 | B3 d B2 | A4 G2 | A4 G2 | F6 | c3 c c2 | c4 c2 | c3 c c2 | a4 g2 | f2 g2 f2 | f2 g2 f2 | %22
w: za- zu|gu- re bi-|ho- tzen|ku- ttu-|na.|On- gi bai|on- gi|i- ga- ro|di- tzan|ga- * ua|e- * ta|
w: lu- le|ar- ku- me|xu- ri|o- tza-|na.|Mai- ta- sun|ez- tiz|es- kein- tzen|di- zut|mai- * te-|単o- * a|
w: an lez|zu i- za-|ki mai-|ta- su-|na|ne- re- bi-|ho- tzak|hain zai- tu|mai- te|Bil- * do-|tso- * xu-|
 f2 g2 f2 | =e6 | c3 c c2 | c3 c c2 | c3 =d =e2 | f4 c2 | d2 c2 B2 | A4 G2 | A4 G2 | F6 |] %32
w: e- * gu-|nak|po- li- ki|po- li- ki|e- ra- gi-|o- zu|e- * gin|de- zan|lo o-|na|
w: nik de- ta-|na|bi- hotz be-|ro- * bat|txir- pil go|xo- az|e- * gin|te- ko|lo o-|na.|
w: ri- gu- re-|na|Gi- za ho-|tza- * ri|ja- ra- mon|ga- be|e- * gin|za- zu|lo o-|na.|
V:4
 C3 C B,2 | A,4 G,2 | F,3 F, F,2 | F,4 E,2 | D,3 D, D,2 | C,4 C,2 | C,4 C,2 | F,,6 | C3 C B,2 | %9
w: Bir- ji- na|Mai- te|lo- * tan|da- go|zu- * re|se- me|laz- ta-|na|se- has- ka-|
w: Ho- tza- ren|ho- tzez|las- to- tar-|te- an|gor- de du|gor- putz|gu- re-|na|a- mak- mu-|
w: Gi- zon bi-|ho- tzak|ho- tza dau-|ka- te|bi- to- tze-|ko hoz-|ta- su-|na|men- di ze-|
 A,4 G,2 | F,3 F, F,2 | F,4 E,2 | D,3 D, D,2 | C,4 C,2 | C,4 C,2 | F,,6 | =E,3 F, G,2 | %17
w: txo- an|i- pi- ni|za- zu|gu- re bi-|ho- tzen|ku- ttu-|na|On- gi bai|
w: su- ka|be- ro nahi|lu- le|ar- ku- me|xu- ri|o- tza-|na.|Mai- ta- sun|
w: la- iak|e- dur- te-|an lez|zu i- za-|ki mai-|ta- su-|na|ne- re- bi-|
 F,2 G,2 A,2 | C3 C B,2 | A,2 F,2 C2 | D4 C2 | =B,4 G,2 | A,4 F,2 | C6 | C,3 C, C,2 | A,3 A, A,2 | %26
w: o- on- gui|i- ga- ro|di- i- tzan|ga- ua|e- ta|e- gu-|nak|po- li- ki|po- li- ki|
w: e- ez- tiz|es- kein- tzen|di- i- zut|mai- te-|単o- a|nikde- ta-|na|bi- hotz be-|ro- * bat|
w: ho- o- tzak|hain zai- tu|ma- ai- te|Bil- do-|txo- xu-|rigu- re-|na|Gi- za ho-|tza- * ri|
 G,3 G, G,2 | F,4 F,2 | B,2 A,2 D,2 | C,4 C,2 | C,4 C,2 | F,,6 |] %32
w: e- ra- gi-|o- zu|e- * gin|de- zan|lo o-|na.|
w: txir- pil go|xo- az|e- * gin|te- ko|lo o-|na.|
w: ja- ra- mon|ga- be|e- * gin|za- zu|lo o-|na.|

